X: 33807
T: Ray's Classic
R: polka
M: 2/4
K: Amajor
|:A2A>E|FA E>A|FB B>A|FB B/d/c/B/|
A2A>E|FA E>A|FB A/G/F/G/|A2 A2:|
|:Ae eA|f2 f2|Bf fB|g2g2|
cg gc|a2 ag/f/|eE E/d/c/B/|A2 A2:|

